teeny/solid/vr-headset.svg

<svg width="15" height="15" viewBox="0 0 15 15" fill="none" xmlns="http://www.w3.org/2000/svg">
<path fill-rule="evenodd" clip-rule="evenodd" d="M12.4671 3.57152L12.8614 4.55731C13.339 4.66349 13.8141 4.78403 14.2863 4.91893C14.7087 5.03963 15 5.42576 15 5.86512V9.21017C15 11.3032 13.3032 13 11.2102 13H10.668C10.3815 13 10.1178 12.8435 9.9806 12.5919C8.90964 10.6285 6.09036 10.6285 5.0194 12.5919C4.88219 12.8435 4.61853 13 4.33198 13H3.78983C1.69677 13 0 11.3032 0 9.21017V5.86512C0 5.42576 0.291256 5.03963 0.71371 4.91893C1.18585 4.78403 1.66102 4.66349 2.13856 4.55731L2.53287 3.57152C2.91253 2.62238 3.8318 2 4.85407 2H10.1459C11.1682 2 12.0875 2.62238 12.4671 3.57152ZM3.46135 3.94291C3.68915 3.37343 4.24071 3 4.85407 3H10.1459C10.7593 3 11.3109 3.37343 11.5386 3.94291L11.6922 4.32679C8.91794 3.84904 6.08206 3.84904 3.3078 4.32679L3.46135 3.94291Z" fill="black"/>
</svg>

<svg viewBox="0 0 15 15" xmlns="http://www.w3.org/2000/svg"><path fill-rule="evenodd" d="M12.46 3.57l.39.98c.47.1.95.22 1.42.36 .42.12.71.5.71.94v3.34c0 2.09-1.7 3.78-3.79 3.78h-.55c-.29 0-.56-.16-.69-.41 -1.08-1.97-3.9-1.97-4.97 0 -.14.25-.41.4-.69.4h-.55c-2.1 0-3.79-1.7-3.79-3.79V5.82c0-.44.29-.83.71-.95 .47-.14.94-.26 1.42-.37l.39-.99c.37-.95 1.29-1.58 2.32-1.58h5.29c1.02 0 1.94.62 2.32 1.57Zm-9.01.37c.22-.57.77-.95 1.39-.95h5.29c.61 0 1.16.37 1.39.94l.15.38c-2.78-.48-5.62-.48-8.39 0l.15-.39Z"/></svg>
